X: 21773
T: SAVOURNA DEELISH
O: Irish air.
Q: "Andantino affettuoso."
%R: air
B: W. Hamilton "Universal Tune-Book" Vol. 2 Glasgow 1846 p.177 #3
S: http://s3-eu-west-1.amazonaws.com/itma.dl.printmaterial/book_pdfs/hamiltonvol2web.pdf
Z: 2016 John Chambers <jc:trillian.mit.edu>
M: C
L: 1/8
K: D
% - - - - - - - - - - - - - - - - - - - - - - - - -
"dolce"y\
!p!A>A |\
d2d>(e dc)cd | B>A(B>=c) (B>>A) F z/B/ |\
(AG)FE (D>E)(FA) | (B2c)>d d2 zA/>A/ |\
d2d>(e dc)ed | B>A(B>=c) (B>>A) F z/B/ |\
(AG)FE D>E(FA) | (B2c)>d d4 |
d2d>e f3f | (gf)ed (f>d)B2 |\
(d>f)ed (dc) zd | (B>A)Bd B>A HF (d/f/) |\
(a>g)fe d2dc | (B>A)Bd B>A HFB |\
(AG)(FE) (D>E)FA | (B2 Hc)>d d4 |]
% - - - - - - - - - - - - - - - - - - - - - - - - -

%%sep 1 1 500
%%sep 1 1 500

